dist/img/quote.svg

<svg width="266" height="266" viewBox="0 0 266 266" fill="none" xmlns="http://www.w3.org/2000/svg">
<g clip-path="url(#clip0)">
<path d="M0.0565247 184.579C0.0565247 219.551 28.4051 247.9 63.3763 247.9C98.3481 247.9 126.697 219.551 126.697 184.579C126.697 149.607 98.3481 121.259 63.3763 121.259C56.1892 121.259 49.3094 122.512 42.8689 124.72C57.1185 42.9947 120.849 -9.70906 61.771 33.6672C-3.73731 81.7666 -0.0136346 182.644 0.0596661 184.493C0.0596661 184.522 0.0565247 184.547 0.0565247 184.579Z" fill="#1C1C1C" fill-opacity="0.05"/>
<path d="M139.36 184.579C139.36 219.551 167.708 247.9 202.68 247.9C237.652 247.9 266.001 219.551 266.001 184.579C266.001 149.607 237.652 121.259 202.68 121.259C195.492 121.259 188.613 122.512 182.172 124.72C196.422 42.9947 260.152 -9.70906 201.074 33.6672C135.566 81.7666 139.289 182.644 139.363 184.493C139.363 184.522 139.36 184.547 139.36 184.579Z" fill="#1C1C1C" fill-opacity="0.05"/>
</g>
<defs>
<clipPath id="clip0">
<rect width="266" height="266" fill="white"/>
</clipPath>
</defs>
</svg>

<svg width="266" height="266" fill="none" xmlns="http://www.w3.org/2000/svg"><g clip-path="url(#clip0)" fill="#1C1C1C" fill-opacity=".05"><path d="M.057 184.579c0 34.972 28.348 63.321 63.32 63.321 34.971 0 63.32-28.349 63.32-63.321 0-34.972-28.349-63.32-63.32-63.32-7.188 0-14.068 1.253-20.508 3.461 14.25-81.725 77.98-134.43 18.902-91.053C-3.737 81.767-.014 182.644.06 184.493c0 .029-.003.054-.003.086zm139.303 0c0 34.972 28.348 63.321 63.32 63.321s63.321-28.349 63.321-63.321c0-34.972-28.349-63.32-63.321-63.32-7.188 0-14.067 1.253-20.508 3.461 14.25-81.725 77.98-134.43 18.902-91.053-65.508 48.1-61.785 148.977-61.711 150.826 0 .029-.003.054-.003.086z"/></g><defs><clipPath id="clip0"><path fill="#fff" d="M0 0h266v266H0z"/></clipPath></defs></svg>
